X:1
T:Title
%%score { ( 1 3 ) | ( 2 4 ) }
L:1/8
M:3/4
K:A
V:1 treble nm="Grand Piano"
V:3 treble 
V:2 bass 
V:4 bass 
V:1
 z2 z2[Q:1/4=100] [CE]2 | [CE][Ec] [Ec]2 [EA]2 | [DF][Fd] [Fd]2 [FB]2 | [EG][GB] [Ge]2 [GB]2 | %4
[M:2/4] [Bd]2 [Ac]2 |[M:1/4] [CE]2 |[M:3/4] [CE][Ec] [Ec]2 [EA]2 | [DF][Fd] [Fd]2 [FB]2 | %8
 [EG][GB] [Ge]2 [B,EG]2 |[M:2/4] [DEB]2 [CEA]2 |[M:1/4] [Ac]2 |[M:3/4] e2 z2 z2 | c2 z2 z2 | %13
 [A,DF][A,FA] [Fd]2 [DF]2 |[M:2/4] [DF]2 [CE]2 |[M:1/4] c2 |[M:3/4] e2 z2 z2 | c2 z2 z2 | %18
 [DF][Fd] [Ec]2 [CEA]2 |[M:2/4] [DEB]2 [CEA]2 |] %20
V:2
 z2 z2 [A,,A,]2 | [A,,A,][A,,A,] [A,,A,]2 [C,A,]2 | [D,A,][D,A,] [D,A,]2 [D,D]2 | %3
 [E,B,][E,B,] [E,B,]2 [E,E]2 |[M:2/4] [A,E]2 [A,E]2 |[M:1/4] [A,,A,]2 | %6
[M:3/4] [A,,A,][A,,A,] [A,,A,]2 [C,A,]2 | [D,A,][D,A,] [D,A,]2 [D,D]2 | [E,B,][E,B,] [E,B,]2 E,2 | %9
[M:2/4] A,,2 A,,2 |[M:1/4] A,2 |[M:3/4] [E,B,][E,B,] [E,E]2 [E,E]2 | A,A, A,2 z G | %13
 D,D, [D,A,]2 [D,A,]2 |[M:2/4] [A,,A,]2 [A,,A,]2 |[M:1/4] [A,A]2 | %16
[M:3/4] [E,B,][E,B,] [E,E]2 [E,E]2 | A,A, [A,C]2 [A,,A,]2 | [D,A,][D,A,] [E,A,]2 E,2 | %19
[M:2/4] A,,2 A,,2 |] %20
V:3
 x6 | x6 | x6 | x6 |[M:2/4] x4 |[M:1/4] x2 |[M:3/4] x6 | x6 | x6 |[M:2/4] x4 |[M:1/4] x2 | %11
[M:3/4] GG [GB]2 [Gd]2 | [EA]E [CEA]2 .[A,CA]2 | x6 |[M:2/4] x4 |[M:1/4] x2 | %16
[M:3/4] GG [GB]2 [Gd]2 | [EA]E [EA]2 [CE]2 | x6 |[M:2/4] x4 |] %20
V:4
 x6 | x6 | x6 | x6 |[M:2/4] x4 |[M:1/4] x2 |[M:3/4] x6 | x6 | x6 |[M:2/4] x4 |[M:1/4] x2 | %11
[M:3/4] x6 | z2 z2 A,,2 | x6 |[M:2/4] x4 |[M:1/4] x2 |[M:3/4] x6 | x6 | x6 |[M:2/4] x4 |] %20

